X:1
T:Polska (260)
R:LTTYP
Z:2007-09-05
S:Efter Magnus Theorin
S:Knd genom Sgskra
B:Smlndsk Musiktradition nr 260
O:Vxj, Smland
M:3/4
L:1/8
K:Dm
dD FA df|eA ce gf|ed g3/2f/2 ed|c=B/2c/2 A2A2|
dD FA df|eA ce gf|ed g3/2f/2 ed|c=B/2c/2 d2d2:|
aA Aa ag/2f/2|gE Eg ge|f2d2 gf/2e/2|d=B/2c/2 A2A2|
aA Aa ag/2f/2|gE Eg ge|fd a3/2a/2 gf|ed/2c/2 d2d2:|
